X:1
T:Hotaru Koi
C:Trad Japanese folk song (pre-1900)
S:Public domain or original as noted in notes.md
M:2/4
L:1/8
Q:1/4=72
K:D
H:D pentatonic starter arrangement for Shakuhachi (D). Refs #1
D F A F | D F A2 | G A c A | G F D2 |
D F G A | c A G F | D F A F | D4 |]
